X:3
T:Trip to Broadford, The
R:waltz
C:Kieran Donnellan
H:Originally in E
Z:id:hn-waltz-3
M:3/4
K:D
ED|:FA AF AB|A2 F4|B3 AAF|EA D2 ED|FA AF AB|A2 d3 e|d B2 AAF|1 D4 ED:|2 D3 AAF||
|:~A3 B de|f3 e fe|d B2 dde|d A2 AAF|~A3 B de|f3 a fe|d B2 AAF|1 D3 AAF:|2 D4||

